src/objects/office/1F587.svg

<svg id="emoji" viewBox="0 0 72 72" xmlns="http://www.w3.org/2000/svg">
  <g id="grid">
    <path fill="#b3b3b3" d="M68,4V68H4V4H68m4-4H0V72H72V0Z"/>
    <path fill="none" stroke="#00a5ff" stroke-miterlimit="10" stroke-width="0.1" d="M12.923,10.9583H59.0769A1.9231,1.9231,0,0,1,61,12.8814V59.0352a1.9231,1.9231,0,0,1-1.9231,1.9231H12.9231A1.9231,1.9231,0,0,1,11,59.0352V12.8813A1.923,1.923,0,0,1,12.923,10.9583Z"/>
    <rect x="16" y="4" rx="2.2537" width="40" height="64" fill="none" stroke="#00a5ff" stroke-miterlimit="10" stroke-width="0.1"/>
    <rect x="16" y="4" rx="2.2537" width="40" height="64" transform="translate(72) rotate(90)" fill="none" stroke="#00a5ff" stroke-miterlimit="10" stroke-width="0.1"/>
    <circle cx="36" cy="36" r="29" fill="none" stroke="#00a5ff" stroke-miterlimit="10" stroke-width="0.1"/>
  </g>
  <g id="color"/>
  <g id="line">
    <g>
      <path fill="none" stroke="#000" stroke-linecap="round" stroke-linejoin="round" stroke-width="2" d="M33.0667,11.2112a7.8894,7.8894,0,0,0-1.0352-.5193c-4.5363-1.7523-8.713.7674-10.5537,5.2112L11.4929,39.8477"/>
      <path fill="none" stroke="#000" stroke-linecap="round" stroke-linejoin="round" stroke-width="2" d="M22.74,39.72l7.2545-17.3527a2.59,2.59,0,0,0-4.7856-1.9822l-10.9358,26.24A5.3177,5.3177,0,0,0,17.11,53.4741a5.2166,5.2166,0,0,0,6.7784-2.79L35.7508,21.9431a10.0445,10.0445,0,0,0,.5525-6.4066"/>
      <path fill="none" stroke="#000" stroke-linecap="round" stroke-linejoin="round" stroke-width="2" d="M36.5374,26.8629l8.77,21.098c1.8407,4.4438,6.1419,7.1664,10.5857,5.3258,4.4467-1.9686,5.6184-6.7037,3.7777-11.1474L49.8,18.1474"/>
      <path fill="none" stroke="#000" stroke-linecap="round" stroke-linejoin="round" stroke-width="2" d="M41.9371,26.19l7.14,17.4a2.59,2.59,0,1,0,4.7856-1.9822L43.0413,15.3206a5.3177,5.3177,0,0,0-6.8484-2.8367,5.2166,5.2166,0,0,0-2.82,6.766l.37.89"/>
    </g>
  </g>
</svg>

<svg viewBox="0 0 72 72" xmlns="http://www.w3.org/2000/svg"><path fill="#b3b3b3" d="M68 4v64H4V4h64m4-4H0v72h72V0z"/><path fill="none" stroke="#00a5ff" stroke-miterlimit="10" stroke-width=".1" d="M12.923 10.958h46.154A1.923 1.923 0 0161 12.881v46.154a1.923 1.923 0 01-1.923 1.923H12.923A1.923 1.923 0 0111 59.035V12.881a1.923 1.923 0 011.923-1.923z"/><rect x="16" y="4" rx="2.254" width="40" height="64" fill="none" stroke="#00a5ff" stroke-miterlimit="10" stroke-width=".1"/><rect x="16" y="4" rx="2.254" width="40" height="64" transform="rotate(90 36 36)" fill="none" stroke="#00a5ff" stroke-miterlimit="10" stroke-width=".1"/><circle cx="36" cy="36" r="29" fill="none" stroke="#00a5ff" stroke-miterlimit="10" stroke-width=".1"/><g stroke-linecap="round" stroke-miterlimit="10" stroke-width="6" stroke="#fff" fill="none" stroke-linejoin="round"><path d="M33.067 11.211a7.89 7.89 0 00-1.036-.52c-4.536-1.751-8.713.768-10.553 5.212l-9.985 23.945"/><path d="M22.74 39.72l7.255-17.353a2.59 2.59 0 00-4.786-1.982l-10.936 26.24a5.318 5.318 0 002.837 6.85 5.217 5.217 0 006.778-2.79l11.863-28.742a10.044 10.044 0 00.552-6.407m.234 11.327l8.77 21.098c1.841 4.444 6.142 7.166 10.586 5.326 4.447-1.969 5.619-6.704 3.778-11.148L49.8 18.147"/><path d="M41.937 26.19l7.14 17.4a2.59 2.59 0 104.786-1.982L43.04 15.32a5.318 5.318 0 00-6.848-2.837 5.217 5.217 0 00-2.82 6.766l.37.89"/></g><g fill="none" stroke="#000" stroke-linecap="round" stroke-linejoin="round" stroke-width="2"><path d="M33.067 11.211a7.89 7.89 0 00-1.036-.52c-4.536-1.751-8.713.768-10.553 5.212l-9.985 23.945"/><path d="M22.74 39.72l7.255-17.353a2.59 2.59 0 00-4.786-1.982l-10.936 26.24a5.318 5.318 0 002.837 6.85 5.217 5.217 0 006.778-2.79l11.863-28.742a10.044 10.044 0 00.552-6.407m.234 11.327l8.77 21.098c1.841 4.444 6.142 7.166 10.586 5.326 4.447-1.969 5.619-6.704 3.778-11.148L49.8 18.147"/><path d="M41.937 26.19l7.14 17.4a2.59 2.59 0 104.786-1.982L43.04 15.32a5.318 5.318 0 00-6.848-2.837 5.217 5.217 0 00-2.82 6.766l.37.89"/></g></svg>
